X: 25711
T: Mary Brennan's Favourite
R: polka
M: 2/4
K: Gmajor
A|:[D3B3] {Bc}B2 A|B2 c D2 [DB]|[D3A3] [D2A2] G|A2 d {e}d2 c|
B2 B {d} B A|B2 c d2 B|A2 G E2 F|1 [B3,G3] [G,2G2]:|2 [G,3G3] [G,3G3]||
|:[G,2G2] E [G,3D3]|[G,2D2] [G,F] [G,2G2] [G,B]|A2 [G,G] [G,2E2] [G,F]|G2 B d2 c|
[G2B2] D D2 D|E2 F [G,2G2] B|A2 G [G,2E2] [G,F]|[G,3G3] [G,3G3]:|

